X: 774
T: Red Stockings.
B:O'Neill's Music of Ireland
N:O'Neill's - 774
Z:Transcribed by Stephen Foy (shf@access.digex.net)
Z:abc 1.6
Z:All ornaments (~) are mordents.
M:6/8
R:Jig
K:G
D|G(~BA) G2 B|def gdB|G(~BA) G2 B|AFD AFD|\
G(~BA) G2 B|def gdB|ecA dBG|cAF G2:|
||A|(B/c/de) dcB|def gdB|ded dBG|ABG AFD|\
ded dcB|def gdB|ecA dBG|cAF G2:|


